src/topics/icons/flocker.svg

<svg height="223" preserveAspectRatio="xMidYMid" viewBox="0 0 256 223" width="256" xmlns="http://www.w3.org/2000/svg"><path d="m63.0077519 186.542636-10.9147286-48.124031-52.0930233-15.379845 45.1472868-32.7441864 66.4806202 13.8914734 37.705426-59.5348842 105.674419-44.6511628-45.643411 140.899225 46.635659 81.860465zm184.0620151 29.271317-95.255814-166.2015499-83.3488367 132.9612399zm-181.0852709-39.193798 43.1627909-67.968992-61.51938-12.899225zm140.4031009-41.674419 40.68217-126.01550344-90.790697 38.20155034zm-155.2868218-1.984496-7.9379845-35.2248059-31.751938 23.3178299z" fill="#6ab5b0"/></svg>

<?xml version="1.0" encoding="UTF-8" standalone="no"?>
<svg width="256px" height="223px" viewBox="0 0 256 223" version="1.1" xmlns="http://www.w3.org/2000/svg" xmlns:xlink="http://www.w3.org/1999/xlink" preserveAspectRatio="xMidYMid">
    <g>
        <path d="M63.0077519,186.542636 L52.0930233,138.418605 L0,123.03876 L45.1472868,90.2945736 L111.627907,104.186047 L149.333333,44.6511628 L255.007752,0 L209.364341,140.899225 L256,222.75969 L63.0077519,186.542636 L63.0077519,186.542636 Z M247.069767,215.813953 L151.813953,49.6124031 L68.4651163,182.573643 L247.069767,215.813953 L247.069767,215.813953 Z M65.9844961,176.620155 L109.147287,108.651163 L47.627907,95.751938 L65.9844961,176.620155 L65.9844961,176.620155 Z M206.387597,134.945736 L247.069767,8.93023256 L156.27907,47.1317829 L206.387597,134.945736 L206.387597,134.945736 Z M51.1007752,132.96124 L43.1627907,97.7364341 L11.4108527,121.054264 L51.1007752,132.96124 L51.1007752,132.96124 Z" fill="#6AB5B0"></path>
    </g>
</svg>
